dist/images/social_path_1.svg

<?xml version="1.0" encoding="UTF-8"?>
<svg width="1440px" height="246px" viewBox="0 0 1440 246" version="1.1" xmlns="http://www.w3.org/2000/svg" xmlns:xlink="http://www.w3.org/1999/xlink">
    <!-- Generator: Sketch 44.1 (41455) - http://www.bohemiancoding.com/sketch -->
    <title>Group 6</title>
    <desc>Created with Sketch.</desc>
    <defs>
        <linearGradient x1="0%" y1="55.1825275%" x2="100%" y2="64.7337443%" id="linearGradient-1">
            <stop stop-color="#D02134" offset="0%"></stop>
            <stop stop-color="#55ACEE" offset="100%"></stop>
        </linearGradient>
    </defs>
    <g id="Home-page" stroke="none" stroke-width="1" fill="none" fill-rule="evenodd">
        <g id="Desktop-HD-Alt" transform="translate(0.000000, -2381.000000)">
            <g id="Social" transform="translate(-42.000000, 2381.000000)">
                <g id="paths">
                    <g id="Group-6" transform="translate(21.000000, 0.000000)">
                        <path d="M510.770283,103.881644 C515.631246,98.1429269 522.890198,94.5 531,94.5 C545.635546,94.5 557.5,106.364454 557.5,121 C557.5,122.172719 557.423824,123.327645 557.276151,124.460102 C567.393056,129.093334 580.154974,134.996659 598.454467,143.478128 C654.179639,169.305692 683.572178,182.219549 716.877397,194.725272 C762.18096,211.736236 801.95862,222.287865 839.467478,226.368029 C881.872537,230.980794 920.962466,227.174601 957.883518,213.947988 C997.571167,199.730268 1033.36263,178.0169 1087.20679,138.452528 C1091.70039,135.150653 1096.35389,131.706386 1102.24092,127.330516 C1104.42182,125.709442 1114.56802,118.157901 1117.36074,116.082753 C1151.39378,90.7942489 1171.98735,76.2562026 1195.03661,61.9192935 C1224.75162,43.4362172 1252.89271,29.3406318 1281.76851,19.1178092 C1350.15698,-5.09357979 1421.86364,-6.95964214 1503.8628,17.3070215 L1499.03064,33.607041 C1420.47626,10.359821 1352.45053,12.1300925 1287.45122,35.1416263 C1259.83015,44.9202435 1232.76565,58.4765713 1204.02895,76.3511277 C1181.48314,90.3748856 1161.19491,104.697383 1127.51446,129.723882 C1124.72854,131.79398 1114.58381,139.344429 1112.39683,140.970021 C1106.48685,145.362944 1101.81008,148.824444 1097.28738,152.147698 C1042.21277,192.6162 1005.25417,215.037628 963.626193,229.95045 C924.15465,244.090752 882.486261,248.148011 837.625915,243.268162 C798.530146,239.015377 757.427834,228.112364 710.891758,210.638606 C677.067494,197.937986 647.392828,184.900176 591.294482,158.899652 C572.747922,150.303672 559.911035,144.365936 549.758458,139.718179 C544.96132,144.525576 538.328017,147.5 531,147.5 C516.364454,147.5 504.5,135.635546 504.5,121 C504.5,120.565447 504.51046,120.133337 504.531141,119.703907 C480.778068,109.61542 459.731316,101.511078 439.763791,94.900635 C397.217272,80.8151965 344.959823,74.7221884 285.180478,75.5713637 C225.125738,76.4244511 160.676757,84.1544045 95.990255,96.5118596 C71.8988495,101.114187 49.4708546,106.044827 29.3064505,110.973286 C22.2576038,112.696121 15.9985386,114.294637 10.6041303,115.727493 C8.72195382,116.227434 7.08393035,116.670476 4.05833493,117.507922 C4.05833493,117.507922 -0.356029544,101.088488 1.18164648,100.661663 C2.6144262,100.267409 4.30118605,99.8111845 6.23262191,99.2981591 C11.7342488,97.8368243 18.1026435,96.210386 25.2634209,94.4601932 C45.6979429,89.465714 68.4064016,84.473416 92.7948916,79.8143348 C158.380842,67.2850526 223.773251,59.4419454 284.938596,58.5730816 C346.465072,57.699088 400.529329,64.0027625 445.115439,78.7634275 C465.45056,85.495567 486.787318,93.7051545 510.770283,103.881644 Z M531,136 C539.284271,136 546,129.284271 546,121 C546,112.715729 539.284271,106 531,106 C522.715729,106 516,112.715729 516,121 C516,129.284271 522.715729,136 531,136 Z" id="Combined-Shape" fill="url(#linearGradient-1)" fill-rule="nonzero" opacity="0.186217351"></path>
                        <circle id="Oval-6" fill="#D02034" opacity="0.531366604" cx="531" cy="121" r="7"></circle>
                    </g>
                </g>
            </g>
        </g>
    </g>
</svg>

<svg width="1440" height="246" viewBox="0 0 1440 246" xmlns="http://www.w3.org/2000/svg"><title>Group 6</title><defs><linearGradient x1="0%" y1="55.183%" y2="64.734%" id="a"><stop stop-color="#D02134" offset="0%"/><stop stop-color="#55ACEE" offset="100%"/></linearGradient></defs><g transform="translate(-21)" fill="none" fill-rule="evenodd"><path d="M510.77 103.882c4.861-5.74 12.12-9.382 20.23-9.382 14.636 0 26.5 11.864 26.5 26.5a26.75 26.75 0 0 1-.224 3.46c10.117 4.633 22.879 10.537 41.178 19.018 55.726 25.828 85.118 38.742 118.423 51.247 45.304 17.011 85.082 27.563 122.59 31.643 42.406 4.613 81.495.807 118.417-12.42 39.687-14.218 75.479-35.931 129.323-75.495 4.493-3.302 9.147-6.747 15.034-11.122 2.18-1.622 12.327-9.173 15.12-11.248 34.033-25.289 54.626-39.827 77.676-54.164 29.715-18.483 57.856-32.578 86.732-42.801 68.388-24.212 140.095-26.078 222.094-1.811l-4.832 16.3c-78.555-23.247-146.58-21.477-211.58 1.535-27.62 9.778-54.685 23.335-83.422 41.21-22.546 14.023-42.834 28.345-76.515 53.372-2.785 2.07-12.93 9.62-15.117 11.246a3359.305 3359.305 0 0 1-15.11 11.178c-55.074 40.468-92.033 62.89-133.66 77.802-39.472 14.14-81.14 18.198-126.001 13.318-39.096-4.253-80.198-15.156-126.734-32.63-33.825-12.7-63.5-25.738-119.598-51.738-18.546-8.596-31.383-14.534-41.536-19.182A26.417 26.417 0 0 1 531 147.5c-14.636 0-26.5-11.864-26.5-26.5 0-.435.01-.867.031-1.296-23.753-10.089-44.8-18.193-64.767-24.803-42.547-14.086-94.804-20.179-154.584-19.33-60.054.853-124.503 8.583-189.19 20.94-24.091 4.603-46.52 9.534-66.684 14.462a976.632 976.632 0 0 0-18.702 4.754c-1.882.5-3.52.943-6.546 1.78 0 0-4.414-16.419-2.876-16.845 1.432-.395 3.12-.85 5.05-1.364a993.561 993.561 0 0 1 19.031-4.838c20.435-4.994 43.143-9.987 67.532-14.646 65.586-12.529 130.978-20.372 192.144-21.24 61.526-.875 115.59 5.429 160.176 20.19 20.336 6.732 41.672 14.941 65.655 25.118zM531 136c8.284 0 15-6.716 15-15 0-8.284-6.716-15-15-15-8.284 0-15 6.716-15 15 0 8.284 6.716 15 15 15z" fill="url(#a)" fill-rule="nonzero" opacity=".186"/><circle fill="#D02034" opacity=".531" cx="531" cy="121" r="7"/></g></svg>
